X: 11923
T: Empress, The
R: reel
M: 4/4
K: Eminor
BEED G3A|Beed cBAc|BEED G3A|cBAG ABde|
BEED GAGe|edBA gagd|eedB cBAG|deBA ABFG:|
G3d dGFG|dGGF E2EB|BccB BAAG|B4 EGBc|
deed ABBA|cBGF E2EF|GAGF EFGA|ADDA ABcd:|

